app/assets/images/payment_icons/pay_by_bank.svg

<svg xmlns="http://www.w3.org/2000/svg" viewBox="0 0 38 24" width="38" height="24" fill="none" aria-labelledby="pi-Pay By Bank"><title id="pi-Pay By Bank">Pay By Bank</title><path width="88" height="32" rx="3" fill="#1D1D1D" d="M1.295 0h35.41A1.295 1.295 0 0138 1.295v11.228a1.295 1.295 0 01-1.295 1.295H1.295A1.295 1.295 0 010 12.523V1.295A1.295 1.295 0 011.295 0z"/><path fill-rule="evenodd" clip-rule="evenodd" d="M34.894 5.544a.614.614 0 11-1.227-.001.614.614 0 011.227.001zm0 2.452a.614.614 0 11-1.227-.001.614.614 0 011.227.001zM5.263 5.94a.965.965 0 00-.25-.662 1.172 1.172 0 00-.856-.347H3.25a.232.232 0 00-.227.232v2.883a.23.23 0 00.231.231.23.23 0 00.232-.231V6.94h.671c.384 0 .675-.13.86-.333a.975.975 0 00.246-.667zm-.445-.009c0 .152-.032.301-.134.412-.097.106-.264.18-.541.18h-.657V5.348h.647c.26 0 .436.092.551.222a.56.56 0 01.134.361zm2.601 2.041v.088a.217.217 0 00.435 0V6.009a.217.217 0 00-.435 0v.07a.78.78 0 00-.639-.31c-.587 0-1.036.509-1.036 1.268 0 .764.453 1.263 1.041 1.263a.74.74 0 00.634-.328zm-.62-.042c-.361 0-.625-.333-.625-.893 0-.555.264-.898.625-.898.352 0 .625.343.625.898 0 .56-.273.893-.625.893zm2.245.898c.134 0 .208-.088.268-.25l.139-.366a.088.088 0 01-.06-.055l-.829-2.046a.28.28 0 01-.023-.102c0-.12.097-.217.218-.217.106 0 .175.069.199.13l.601 1.559c.023.06.07.204.084.255h.009a4.15 4.15 0 01.083-.255l.606-1.569c.033-.083.116-.12.195-.12a.217.217 0 01.194.315L9.645 8.8a.626.626 0 01-.597.421.696.696 0 01-.495-.18.237.237 0 01-.079-.167c0-.106.084-.194.195-.194a.22.22 0 01.139.051.362.362 0 00.236.097zm4.927-3.059a.82.82 0 00-.639.314v-.934a.217.217 0 10-.435 0V8.06a.217.217 0 00.435 0v-.056a.835.835 0 00.667.296c.578 0 1.009-.513 1.009-1.263 0-.764-.454-1.268-1.037-1.268zm-.018 2.161c-.352 0-.625-.333-.625-.893 0-.555.273-.898.625-.898.361 0 .624.343.624.898 0 .56-.263.893-.624.893zm2.06.898c.134 0 .208-.088.268-.25l.139-.366a.088.088 0 01-.06-.055l-.828-2.046a.218.218 0 01.194-.319c.106 0 .176.069.199.13l.602 1.559c.023.06.069.204.083.255h.009c.014-.051.06-.195.084-.255l.606-1.569c.032-.083.116-.12.194-.12a.217.217 0 01.195.315L16.615 8.8a.627.627 0 01-.597.421.697.697 0 01-.496-.18.24.24 0 01-.078-.167c0-.106.083-.194.194-.194a.22.22 0 01.139.051.364.364 0 00.236.097zm6.311-1.555a.862.862 0 00-.518-.815c.194-.138.361-.342.361-.648a.839.839 0 00-.269-.638c-.171-.162-.411-.241-.772-.241h-.986a.23.23 0 00-.232.232v2.883a.23.23 0 00.227.231h1.037c.74 0 1.152-.439 1.152-1.004zm-.615-1.453c0 .268-.134.467-.537.467h-.801v-.939h.741c.402 0 .597.18.597.472zm.139 1.458c0 .347-.246.583-.667.583h-.81V6.694h.829c.439 0 .648.223.648.584zm2.796.782v-.088a.742.742 0 01-.634.328c-.588 0-1.042-.499-1.042-1.263 0-.759.449-1.268 1.037-1.268a.78.78 0 01.639.31v-.07a.217.217 0 01.435 0V8.06a.217.217 0 01-.435 0zm-1.245-1.023c0 .56.264.893.625.893.351 0 .624-.333.624-.893 0-.555-.273-.898-.624-.898-.361 0-.625.343-.625.898zm3.04-1.028a.218.218 0 00-.435 0V8.06a.218.218 0 00.435 0V6.796c0-.115.024-.25.088-.352a.63.63 0 01.533-.282c.222 0 .37.107.425.264.028.079.037.218.037.329V8.06a.218.218 0 00.435 0V6.731c0-.217-.018-.43-.12-.601-.153-.259-.435-.361-.694-.361a.932.932 0 00-.704.296v-.056zm4.305-.004a.252.252 0 01-.087.18l-.741.713.828 1.018a.248.248 0 01.065.158.216.216 0 01-.213.213.207.207 0 01-.166-.084l-.806-1.027-.324.31v.574a.218.218 0 01-.435 0V5.149a.218.218 0 11.435 0v1.786l1.074-1.074a.228.228 0 01.158-.069c.111 0 .212.093.212.213z" fill="#FAFAFA"/></svg>

<svg xmlns="http://www.w3.org/2000/svg" viewBox="0 0 38 24" width="38" height="24" fill="none" aria-labelledby="pi-Pay By Bank">
  <title id="pi-Pay By Bank">Pay By Bank</title>
  <path width="88" height="32" rx="3" fill="#1D1D1D" d="M1.295 0H36.705A1.295 1.295 0 0 1 38 1.295V12.523A1.295 1.295 0 0 1 36.705 13.818H1.295A1.295 1.295 0 0 1 0 12.523V1.295A1.295 1.295 0 0 1 1.295 0z"/>
  <path fill-rule="evenodd" clip-rule="evenodd" d="M34.894 5.544C34.894 5.882 34.619 6.157 34.281 6.157C33.942 6.157 33.668 5.882 33.668 5.544C33.668 5.205 33.942 4.931 34.281 4.931C34.619 4.931 34.894 5.205 34.894 5.544ZM34.894 7.996C34.894 8.334 34.619 8.609 34.281 8.609C33.942 8.609 33.668 8.334 33.668 7.996C33.668 7.657 33.942 7.383 34.281 7.383C34.619 7.383 34.894 7.657 34.894 7.996ZM5.263 5.94C5.263 5.672 5.166 5.445 5.013 5.278C4.805 5.056 4.49 4.931 4.157 4.931H3.25C3.125 4.931 3.023 5.038 3.023 5.163V8.046C3.023 8.175 3.125 8.277 3.254 8.277C3.384 8.277 3.486 8.175 3.486 8.046V6.94H4.157C4.541 6.94 4.832 6.81 5.017 6.607C5.179 6.426 5.263 6.199 5.263 5.94ZM4.818 5.931C4.818 6.083 4.786 6.232 4.684 6.343C4.587 6.449 4.42 6.523 4.143 6.523H3.486V5.348H4.133C4.393 5.348 4.569 5.44 4.684 5.57C4.772 5.676 4.818 5.801 4.818 5.931ZM7.419 7.972V8.06C7.419 8.18 7.516 8.277 7.637 8.277C7.757 8.277 7.854 8.18 7.854 8.06V6.009C7.854 5.889 7.757 5.792 7.637 5.792C7.516 5.792 7.419 5.889 7.419 6.009V6.079C7.262 5.866 7.021 5.769 6.78 5.769C6.193 5.769 5.744 6.278 5.744 7.037C5.744 7.801 6.197 8.3 6.785 8.3C7.054 8.3 7.28 8.18 7.419 7.972ZM6.799 7.93C6.438 7.93 6.174 7.597 6.174 7.037C6.174 6.482 6.438 6.139 6.799 6.139C7.151 6.139 7.424 6.482 7.424 7.037C7.424 7.597 7.151 7.93 6.799 7.93ZM9.044 8.828C9.178 8.828 9.252 8.74 9.312 8.578L9.451 8.212C9.423 8.203 9.405 8.189 9.391 8.157L8.562 6.111C8.553 6.088 8.539 6.051 8.539 6.009C8.539 5.889 8.636 5.792 8.757 5.792C8.863 5.792 8.932 5.861 8.956 5.922L9.557 7.481C9.58 7.541 9.627 7.685 9.641 7.736H9.65C9.664 7.685 9.71 7.541 9.733 7.481L10.339 5.912C10.372 5.829 10.455 5.792 10.534 5.792C10.654 5.792 10.751 5.889 10.751 6.009C10.751 6.042 10.742 6.074 10.728 6.107L9.645 8.8C9.539 9.069 9.317 9.221 9.048 9.221C8.845 9.221 8.683 9.161 8.553 9.041C8.511 8.999 8.474 8.944 8.474 8.874C8.474 8.768 8.558 8.68 8.669 8.68C8.72 8.68 8.766 8.698 8.808 8.731C8.872 8.786 8.951 8.828 9.044 8.828ZM13.971 5.769C13.712 5.769 13.494 5.889 13.332 6.083V5.149C13.332 5.028 13.235 4.931 13.115 4.931C12.994 4.931 12.897 5.028 12.897 5.149V8.06C12.897 8.18 12.994 8.277 13.115 8.277C13.235 8.277 13.332 8.18 13.332 8.06V8.004C13.476 8.171 13.684 8.3 13.999 8.3C14.577 8.3 15.008 7.787 15.008 7.037C15.008 6.273 14.554 5.769 13.971 5.769ZM13.953 7.93C13.601 7.93 13.328 7.597 13.328 7.037C13.328 6.482 13.601 6.139 13.953 6.139C14.314 6.139 14.577 6.482 14.577 7.037C14.577 7.597 14.314 7.93 13.953 7.93ZM16.013 8.828C16.147 8.828 16.221 8.74 16.281 8.578L16.42 8.212C16.392 8.203 16.374 8.189 16.36 8.157L15.532 6.111C15.522 6.088 15.508 6.051 15.508 6.009C15.508 5.889 15.606 5.792 15.726 5.792C15.832 5.792 15.902 5.861 15.925 5.922L16.527 7.481C16.55 7.541 16.596 7.685 16.61 7.736H16.619C16.633 7.685 16.679 7.541 16.703 7.481L17.309 5.912C17.341 5.829 17.425 5.792 17.503 5.792C17.624 5.792 17.721 5.889 17.721 6.009C17.721 6.042 17.711 6.074 17.698 6.107L16.615 8.8C16.508 9.069 16.286 9.221 16.018 9.221C15.814 9.221 15.652 9.161 15.522 9.041C15.481 8.999 15.444 8.944 15.444 8.874C15.444 8.768 15.527 8.68 15.638 8.68C15.689 8.68 15.735 8.698 15.777 8.731C15.842 8.786 15.92 8.828 16.013 8.828ZM22.324 7.273C22.324 6.88 22.102 6.583 21.806 6.458C22 6.32 22.167 6.116 22.167 5.81C22.167 5.542 22.065 5.324 21.898 5.172C21.727 5.01 21.487 4.931 21.126 4.931H20.14C20.01 4.931 19.908 5.033 19.908 5.163V8.046C19.908 8.171 20.01 8.277 20.135 8.277H21.172C21.912 8.277 22.324 7.838 22.324 7.273ZM21.709 5.82C21.709 6.088 21.575 6.287 21.172 6.287H20.371V5.348H21.112C21.514 5.348 21.709 5.528 21.709 5.82ZM21.848 7.278C21.848 7.625 21.602 7.861 21.181 7.861H20.371V6.694H21.2C21.639 6.694 21.848 6.917 21.848 7.278ZM24.644 8.06V7.972C24.505 8.18 24.278 8.3 24.01 8.3C23.422 8.3 22.968 7.801 22.968 7.037C22.968 6.278 23.417 5.769 24.005 5.769C24.246 5.769 24.486 5.866 24.644 6.079V6.009C24.644 5.889 24.741 5.792 24.861 5.792C24.982 5.792 25.079 5.889 25.079 6.009V8.06C25.079 8.18 24.982 8.277 24.861 8.277C24.741 8.277 24.644 8.18 24.644 8.06ZM23.399 7.037C23.399 7.597 23.663 7.93 24.024 7.93C24.375 7.93 24.648 7.597 24.648 7.037C24.648 6.482 24.375 6.139 24.024 6.139C23.663 6.139 23.399 6.482 23.399 7.037ZM26.439 6.009C26.439 5.889 26.342 5.792 26.222 5.792C26.102 5.792 26.004 5.889 26.004 6.009V8.06C26.004 8.18 26.102 8.277 26.222 8.277C26.342 8.277 26.439 8.18 26.439 8.06V6.796C26.439 6.681 26.463 6.546 26.527 6.444C26.638 6.259 26.861 6.162 27.06 6.162C27.282 6.162 27.43 6.269 27.485 6.426C27.513 6.505 27.522 6.644 27.522 6.755V8.06C27.522 8.18 27.62 8.277 27.74 8.277C27.86 8.277 27.957 8.18 27.957 8.06V6.731C27.957 6.514 27.939 6.301 27.837 6.13C27.684 5.871 27.402 5.769 27.143 5.769C26.842 5.769 26.587 5.894 26.439 6.065V6.009ZM30.744 6.005C30.744 6.074 30.707 6.139 30.657 6.185L29.916 6.898L30.744 7.916C30.782 7.963 30.809 8.013 30.809 8.074C30.809 8.189 30.712 8.287 30.596 8.287C30.545 8.287 30.481 8.268 30.43 8.203L29.624 7.176L29.3 7.486V8.06C29.3 8.18 29.203 8.277 29.083 8.277C28.963 8.277 28.865 8.18 28.865 8.06V5.149C28.865 5.028 28.963 4.931 29.083 4.931C29.203 4.931 29.3 5.028 29.3 5.149V6.935L30.374 5.861C30.416 5.82 30.471 5.792 30.532 5.792C30.643 5.792 30.744 5.885 30.744 6.005Z" fill="#FAFAFA"/>
</svg>
